X:1
T:Eckerischer
C:traditionell
A:Oesterreich
%%textfont Helvetica-Narrow 10pt
%%begintext align
S:gelernt von Elisabeth und Christophorus Huspeka
%%endtext 
F:http://simonwascher.info 
Z:abc transcription Simon Wascher
M:3/4
L:1/4
K:G
B/A/ |\
GBd | BB/B/B | GBd | cc/c/c |\
FAd | ff/f/f | ee/e/e | dd/d/d |
GBd | BB/B/B | GBd | cc/c/c |\
FAd | ff/f/f | edF | G2 :|
P:Walzer
|: D |\
Ecc | c2B/A/ | AGG | D2D/G/ |\
GFF | D2D/A/ | AGG | D2D |
Ecc | c2B/A/ | AGG | D2D/G/ |\
GFF | DB>A | G>GG | G2 :|
%%wordsfont Times-Italic 11pt
W:aus Simon Waschers TradArchiv
